X:215
T:Skrap Ollas polska
T:River jag s\"onder i kras
R:sl\"angpolska
H:efter Karl Fahlstr\"om "Glysen", som bodde i Karlskoga-Grythyttans bergslag.
H:Nedtecknad i V\"astg\"otetorp, Loka 1910. D-bas. Jfr #188.
A:V\"astmanland
D:Anders Norudde: Kan sj\"alv! (spelas i A p{\aa} skivan)
Z:id:hn-sp-215
M:3/4
L:1/16
K:D
f3d A2A2 G2G2 | FDEF GFGB A2A2 | f3d A2A2 G2G2 | FDEF GFGB B2A2 |
B3A B2c2 d2B2 | A2AG F2G2 A4 | B2BA B2c2 d2B2 | ABAG F2G2 A4 |
B2B2 g2f2 e2d2 | c2Bc e4 d4 :||: A2A2 GFEG F2F2 | F2F2 FDEF D2F2 |
A2A2 GFEG F2D2 | F2F2 EDEF D4 | B2B2 g2f2 e2d2 | c2Bc e4 d4 :|
[K:Dm] |: A2a2 a2ga a2e2 | e2fg f2ef f2d2 | d2d^c d2e2 e2f2 |
f2ef d2ed ^c2A2 | A2a2 a2ga a2e2 | e2fg f2ef f2d2 |
d2d^c d2e2 f2e2 | d2^cd e4 d4 :|
<end>
<start>
